icons/src/scalable/default/status/yelp-page-task-symbolic.svg

<?xml version="1.0" encoding="UTF-8" standalone="no"?>
<svg
   height="16"
   id="svg7384"
   version="1.1"
   width="16"
   sodipodi:docname="yelp-page-task-symbolic.svg"
   inkscape:version="1.1 (ce6663b3b7, 2021-05-25)"
   xmlns:inkscape="http://www.inkscape.org/namespaces/inkscape"
   xmlns:sodipodi="http://sodipodi.sourceforge.net/DTD/sodipodi-0.dtd"
   xmlns="http://www.w3.org/2000/svg"
   xmlns:svg="http://www.w3.org/2000/svg"
   xmlns:rdf="http://www.w3.org/1999/02/22-rdf-syntax-ns#"
   xmlns:cc="http://creativecommons.org/ns#"
   xmlns:dc="http://purl.org/dc/elements/1.1/">
  <sodipodi:namedview
     id="namedview21"
     pagecolor="#ffffff"
     bordercolor="#666666"
     borderopacity="1.0"
     inkscape:pageshadow="2"
     inkscape:pageopacity="0.0"
     inkscape:pagecheckerboard="0"
     showgrid="false"
     inkscape:zoom="1.75"
     inkscape:cx="92.285714"
     inkscape:cy="-45.714286"
     inkscape:window-width="1920"
     inkscape:window-height="1043"
     inkscape:window-x="1920"
     inkscape:window-y="0"
     inkscape:window-maximized="1"
     inkscape:current-layer="svg7384">
    <inkscape:grid
       type="xygrid"
       id="grid21" />
  </sodipodi:namedview>
  <metadata
     id="metadata20854">
    <rdf:RDF>
      <cc:Work
         rdf:about="">
        <dc:format>image/svg+xml</dc:format>
        <dc:type
           rdf:resource="http://purl.org/dc/dcmitype/StillImage" />
      </cc:Work>
    </rdf:RDF>
  </metadata>
  <defs
     id="defs7386">
    <linearGradient
       id="linearGradient5606"
       inkscape:swatch="solid">
      <stop
         id="stop5608"
         offset="0"
         style="stop-color:#000000;stop-opacity:1;" />
    </linearGradient>
    <linearGradient
       id="linearGradient4526"
       inkscape:swatch="solid">
      <stop
         id="stop4528"
         offset="0"
         style="stop-color:#ffffff;stop-opacity:1;" />
    </linearGradient>
    <linearGradient
       id="linearGradient3600-4"
       inkscape:swatch="gradient">
      <stop
         id="stop3602-7"
         offset="0"
         style="stop-color:#f4f4f4;stop-opacity:1" />
      <stop
         id="stop3604-6"
         offset="1"
         style="stop-color:#dbdbdb;stop-opacity:1" />
    </linearGradient>
  </defs>
  <path
     id="path5289-0-6"
     style="color:#000000;display:inline;overflow:visible;visibility:visible;fill:#bebebe;fill-opacity:1;fill-rule:nonzero;stroke:none;stroke-width:4;marker:none;enable-background:accumulate"
     d="M 4.9941406 0 C 3.7360406 0.01507 2.81522 -0.02842125 2.0625 0.38671875 C 1.68614 0.59428875 1.3892894 0.9442025 1.2246094 1.3828125 C 1.0598994 1.8214225 1 2.34239 1 3 L 1 13 C 1 13.65761 1.0599394 14.178517 1.2246094 14.617188 C 1.3892694 15.055848 1.68613 15.407574 2.0625 15.615234 C 2.81525 16.030604 3.7359406 15.9855 4.9941406 16 L 4.9980469 16 L 11.003906 16 L 11.005859 16 C 12.263949 15.98493 13.18478 16.028411 13.9375 15.613281 C 14.31386 15.405711 14.610711 15.055798 14.775391 14.617188 C 14.940101 14.178577 15 13.65761 15 13 L 15 5 L 15 4.25 L 10.75 0 L 10 0 L 4.9960938 0 L 4.9941406 0 z M 5 1 L 5.0058594 1 L 10 1 L 10 5 L 12 5 L 14 5 L 14 13 C 14 13.59239 13.937344 14.005835 13.839844 14.265625 C 13.742304 14.525425 13.638498 14.637121 13.455078 14.738281 C 13.089098 14.940101 12.25862 14.9848 11 15 L 5 15 C 3.74147 14.9853 2.9108819 14.940201 2.5449219 14.738281 C 2.3615119 14.637091 2.2577562 14.525535 2.1601562 14.265625 C 2.0625963 14.005725 2 13.59239 2 13 L 2 3 C 2 2.40761 2.0625563 1.994185 2.1601562 1.734375 C 2.2576963 1.474575 2.3615019 1.3628787 2.5449219 1.2617188 C 2.9109019 1.0598987 3.74137 1.0152 5 1 z " />
  <g
     id="layer9"
     label="status"
     style="display:inline"
     transform="translate(-433.0002,-213)" />
  <g
     id="layer2"
     style="display:inline"
     transform="translate(-192,-580)" />
  <g
     id="layer4"
     style="display:inline"
     transform="translate(-192,-580)" />
  <g
     id="g1812"
     style="display:inline"
     transform="translate(-192,-580)" />
  <g
     id="g6217"
     style="display:inline"
     transform="translate(-192,-580)" />
  <g
     id="layer3"
     style="display:inline"
     transform="translate(-192,-580)" />
  <g
     id="g1833"
     style="display:inline"
     transform="translate(-192,-580)" />
  <rect
     style="fill:#bebebe;fill-rule:evenodd;stroke-width:2;stroke-linecap:round;stroke-linejoin:round"
     id="rect45"
     width="1"
     height="1"
     x="4"
     y="7" />
  <rect
     style="fill:#bebebe;fill-rule:evenodd;stroke-width:2;stroke-linecap:round;stroke-linejoin:round"
     id="rect47"
     width="6"
     height="1"
     x="6"
     y="7" />
  <rect
     style="fill:#bebebe;fill-rule:evenodd;stroke-width:2;stroke-linecap:round;stroke-linejoin:round"
     id="rect129"
     width="1"
     height="1"
     x="4"
     y="9" />
  <rect
     style="fill:#bebebe;fill-rule:evenodd;stroke-width:2;stroke-linecap:round;stroke-linejoin:round"
     id="rect131"
     width="6"
     height="1"
     x="6"
     y="9" />
  <rect
     style="fill:#bebebe;fill-rule:evenodd;stroke-width:2;stroke-linecap:round;stroke-linejoin:round"
     id="rect133"
     width="1"
     height="1"
     x="4"
     y="11" />
  <rect
     style="fill:#bebebe;fill-rule:evenodd;stroke-width:2;stroke-linecap:round;stroke-linejoin:round"
     id="rect135"
     width="6"
     height="1"
     x="6"
     y="11" />
</svg>

<svg version="1.1" viewBox="0 0 16 16" xmlns="http://www.w3.org/2000/svg">
 <g fill="#bebebe">
  <path d="m4.9941 0c-1.2581 0.01507-2.1789-0.028421-2.9316 0.38672-0.37636 0.20757-0.67321 0.55748-0.83789 0.99609-0.16471 0.43861-0.22461 0.95958-0.22461 1.6172v10c0 0.65761 0.059939 1.1785 0.22461 1.6172 0.16466 0.43866 0.46152 0.79039 0.83789 0.99805 0.75275 0.41537 1.6734 0.37027 2.9316 0.38477h0.0039063 6.0059 0.001953c1.2581-0.01507 2.1789 0.028411 2.9316-0.38672 0.37636-0.20757 0.67321-0.55748 0.83789-0.99609 0.16471-0.43861 0.22461-0.95958 0.22461-1.6172v-8-0.75l-4.25-4.25h-0.75-5.0039-0.0019532zm0.0058594 1h0.0058594 4.9941v4h2 2v8c0 0.59239-0.062656 1.0058-0.16016 1.2656-0.09754 0.2598-0.20135 0.3715-0.38477 0.47266-0.36598 0.20182-1.1965 0.24652-2.4551 0.26172h-6c-1.2585-0.0147-2.0891-0.059799-2.4551-0.26172-0.18341-0.10119-0.28717-0.21275-0.38477-0.47266-0.09756-0.2599-0.16016-0.67324-0.16016-1.2656v-10c0-0.59239 0.062556-1.0058 0.16016-1.2656 0.09754-0.2598 0.20135-0.3715 0.38477-0.47266 0.36598-0.20182 1.1964-0.24652 2.4551-0.26172z" color="#000000"/>
  <g fill-rule="evenodd" stroke-linecap="round" stroke-linejoin="round" stroke-width="2">
   <rect x="4" y="7" width="1" height="1"/>
   <rect x="6" y="7" width="6" height="1"/>
   <rect x="4" y="9" width="1" height="1"/>
   <rect x="6" y="9" width="6" height="1"/>
   <rect x="4" y="11" width="1" height="1"/>
   <rect x="6" y="11" width="6" height="1"/>
  </g>
 </g>
</svg>
